symbolic/32x32/places/folder-bluegrey-android.svg

<svg xmlns="http://www.w3.org/2000/svg" width="32" height="32" version="1">
 <rect style="opacity:0.2" width="28" height="18" x="2" y="11" rx="1.4" ry="1.4"/>
 <path style="fill:#4d646f" d="M 2,22.6 C 2,23.376 2.6244,24 3.4,24 H 28.6 C 29.376,24 30,23.376 30,22.6 V 7.4 C 30,6.6244 29.376,6 28.6,6 H 16 C 13.9,6 13.2,3 11.1,3 H 3.4 C 2.6244,3 2,3.6244 2,4.4"/>
 <rect style="opacity:0.2" width="28" height="18" x="2" y="9" rx="1.4" ry="1.4"/>
 <rect style="fill:#e4e4e4" width="24" height="11" x="4" y="8" rx="1.4" ry="1.4"/>
 <rect style="fill:#607d8b" width="28" height="18" x="2" y="10" rx="1.4" ry="1.4"/>
 <path style="opacity:0.1;fill:#ffffff" d="M 3.4004,3 C 2.6248,3 2,3.6248 2,4.4004 V 5.4004 C 2,4.6248 2.6248,4 3.4004,4 H 11.1 C 13.2,4 13.9,7 16,7 H 28.6 C 29.375,7 30,7.6248 30,8.4004 V 7.4004 C 30,6.6248 29.375,6 28.6,6 H 16 C 13.9,6 13.2,3 11.1,3 Z"/>
 <path style="fill:#222c31" d="m 10.989582,14.988281 a 1.0001,1.0001 0 0 0 -0.763672,1.644531 l 1.076172,1.316407 c -0.742235,1.034712 -1.126852,2.468362 -1.300781,4.28125 C 9.9645542,23.000441 10.776691,23 10.776691,23 h 10.425782 c 0,0 0.835451,-1.68e-4 0.794922,-0.808594 -0.189021,-1.874847 -0.601975,-3.337697 -1.402344,-4.373047 l 1.111328,-1.111328 a 1.0001,1.0001 0 0 0 -0.726562,-1.716797 1.0001,1.0001 0 0 0 -0.6875,0.302735 l -1.273438,1.273437 C 18.220959,16.195365 17.233296,16 15.999348,16 c -1.317391,0 -2.360855,0.215623 -3.185547,0.638672 L 11.772786,15.367188 A 1.0001,1.0001 0 0 0 10.989582,14.988281 Z M 12.999348,19 a 1,1 0 0 1 1,1 1,1 0 0 1 -1,1 1,1 0 0 1 -1,-1 1,1 0 0 1 1,-1 z m 6,0 a 1,1 0 0 1 1,1 1,1 0 0 1 -1,1 1,1 0 0 1 -1,-1 1,1 0 0 1 1,-1 z"/>
</svg>

<svg xmlns="http://www.w3.org/2000/svg" width="32" height="32" version="1"><rect style="opacity:.2" width="28" height="18" x="2" y="11" rx="1.4" ry="1.4"/><path style="fill:#4d646f" d="M2 22.6c0 .776.624 1.4 1.4 1.4h25.2c.776 0 1.4-.624 1.4-1.4V7.4c0-.776-.624-1.4-1.4-1.4H16c-2.1 0-2.8-3-4.9-3H3.4C2.624 3 2 3.624 2 4.4"/><rect style="opacity:.2" width="28" height="18" x="2" y="9" rx="1.4" ry="1.4"/><rect style="fill:#e4e4e4" width="24" height="11" x="4" y="8" rx="1.4" ry="1.4"/><rect style="fill:#607d8b" width="28" height="18" x="2" y="10" rx="1.4" ry="1.4"/><path style="opacity:.1;fill:#fff" d="M3.4 3C2.625 3 2 3.625 2 4.4v1C2 4.625 2.625 4 3.4 4h7.7c2.1 0 2.8 3 4.9 3h12.6c.775 0 1.4.625 1.4 1.4v-1c0-.775-.625-1.4-1.4-1.4H16c-2.1 0-2.8-3-4.9-3z"/><path style="fill:#222c31" d="M10.99 14.988a1 1 0 0 0-.764 1.645l1.076 1.316c-.742 1.035-1.127 2.469-1.3 4.281-.037.77.775.77.775.77h10.425s.836 0 .795-.809c-.189-1.874-.602-3.337-1.402-4.373l1.111-1.111a1 1 0 0 0-.726-1.717 1 1 0 0 0-.688.303l-1.273 1.273c-.798-.37-1.786-.566-3.02-.566-1.317 0-2.36.216-3.185.639l-1.041-1.272a1 1 0 0 0-.783-.379zM13 19a1 1 0 0 1 1 1 1 1 0 0 1-1 1 1 1 0 0 1-1-1 1 1 0 0 1 1-1zm6 0a1 1 0 0 1 1 1 1 1 0 0 1-1 1 1 1 0 0 1-1-1 1 1 0 0 1 1-1z"/></svg>
